apps/penxle.com/src/assets/icons/heart.svg

<svg fill="currentColor" viewBox="0 0 15 14" xmlns="http://www.w3.org/2000/svg">
  <path
    d="M10.4649 2.8118C10.2229 2.71984 9.95222 2.84147 9.86026 3.08347C9.7683 3.32546 9.88992 3.59619 10.1319 3.68816C10.3574 3.77383 10.5927 3.91897 10.8291 4.15338C11.1302 4.4519 11.3208 4.77909 11.427 5.12356C11.5033 5.37095 11.7657 5.50966 12.0131 5.43337C12.2605 5.35708 12.3992 5.09469 12.3229 4.8473C12.1706 4.35353 11.8981 3.8931 11.4892 3.48763C11.1665 3.16775 10.8217 2.94736 10.4649 2.8118Z"
  />
  <path
    fill-rule="evenodd"
    clip-rule="evenodd"
    d="M6.7506 1.69535C6.19547 1.34321 5.43541 0.977105 4.59143 0.91532C3.72399 0.851818 2.8003 1.11358 1.97058 1.95973C0.991029 2.95866 0.683706 4.1918 0.807113 5.43916C0.929097 6.67213 1.46993 7.92553 2.19124 9.03614C2.91449 10.1497 3.83835 11.1495 4.7652 11.8755C5.67167 12.5855 6.65794 13.0937 7.49993 13.0937C8.34191 13.0937 9.32819 12.5855 10.2347 11.8755C11.1615 11.1495 12.0854 10.1497 12.8086 9.03614C13.5299 7.92553 14.0708 6.67214 14.1928 5.43916C14.3162 4.1918 14.0088 2.95866 13.0293 1.95973C12.1996 1.11359 11.2759 0.851829 10.4085 0.91533C9.56448 0.977114 8.80442 1.34322 8.24929 1.69536C7.81151 1.97306 7.18838 1.97306 6.7506 1.69535ZM2.63995 2.61612C3.2691 1.97452 3.91952 1.80614 4.52298 1.85032C5.14989 1.89621 5.75752 2.17561 6.24842 2.48701C6.99275 2.95917 8.00714 2.95917 8.75147 2.48701C9.24237 2.17561 9.84999 1.89622 10.4769 1.85033C11.0804 1.80615 11.7308 1.97453 12.3599 2.61612C13.1119 3.38302 13.3609 4.32492 13.2598 5.34686C13.1573 6.38317 12.6928 7.49331 12.0224 8.5255C11.3539 9.55473 10.4997 10.477 9.65657 11.1374C8.79302 11.8138 8.01736 12.1562 7.49993 12.1562C6.98249 12.1562 6.20683 11.8138 5.34329 11.1374C4.50014 10.477 3.64593 9.55473 2.97747 8.5255C2.30709 7.49331 1.84259 6.38317 1.74006 5.34686C1.63895 4.32492 1.88793 3.38302 2.63995 2.61612Z"
  />
</svg>

<svg xmlns="http://www.w3.org/2000/svg" fill="currentColor" viewBox="0 0 15 14">
  <path
    d="M10.465 2.812a.469.469 0 1 0-.333.876c.225.086.46.231.697.465.301.299.492.626.598.97a.469.469 0 0 0 .896-.276 3.248 3.248 0 0 0-.834-1.36 2.935 2.935 0 0 0-1.024-.675Z"
  />
  <path
    fill-rule="evenodd"
    d="M6.75 1.695c-.555-.352-1.315-.718-2.159-.78-.867-.063-1.79.199-2.62 1.045C.99 2.959.684 4.192.807 5.44c.122 1.232.663 2.486 1.384 3.596a11.975 11.975 0 0 0 2.574 2.84c.907.71 1.893 1.218 2.735 1.218.842 0 1.828-.508 2.735-1.218a11.974 11.974 0 0 0 2.574-2.84c.72-1.11 1.262-2.364 1.384-3.597.123-1.247-.184-2.48-1.164-3.48-.83-.845-1.753-1.107-2.62-1.044-.845.062-1.605.428-2.16.78a1.452 1.452 0 0 1-1.498 0Zm-4.11.921c.63-.641 1.28-.81 1.883-.766.627.046 1.235.326 1.725.637a2.389 2.389 0 0 0 2.503 0c.491-.311 1.099-.59 1.726-.637.603-.044 1.254.125 1.883.766.752.767 1 1.709.9 2.73-.103 1.037-.567 2.147-1.238 3.18a11.038 11.038 0 0 1-2.365 2.611c-.864.677-1.64 1.02-2.157 1.02-.518 0-1.293-.343-2.157-1.02a11.037 11.037 0 0 1-2.366-2.612c-.67-1.032-1.134-2.142-1.237-3.178-.101-1.022.148-1.964.9-2.73Z"
    clip-rule="evenodd"
  />
</svg>
